src/actions/24/code-typedef.svg

<svg xmlns="http://www.w3.org/2000/svg" viewBox="0 0 24 24">
    <path d="M6 4c-1.108 0-2 .892-2 2s.892 2 2 2v3H4v8h2v1h14v-3H6v1H5v-6h1v3h14V6H8c0-1.108-.892-2-2-2zm0 1c.554 0 1 .446 1 1s-.446 1-1 1-1-.446-1-1 .446-1 1-1zm1 2h12v7H7V7z" style="fill:currentColor;fill-opacity:1;stroke:none;color:#050505;opacity:.7"/>
</svg>

<svg xmlns="http://www.w3.org/2000/svg" viewBox="0 0 24 24">
  <defs id="defs3051">
    <style type="text/css" id="current-color-scheme">
      .ColorScheme-Text {
        color:#363636;
      }
      </style>
  </defs>
 <path style="fill:currentColor;fill-opacity:1;stroke:none" 
     d="M 6 4 C 4.892 4 4 4.892 4 6 C 4 7.108 4.892 8 6 8 L 6 11 L 4 11 L 4 12 L 4 18 L 4 19 L 6 19 L 6 20 L 20 20 L 20 17 L 6 17 L 6 18 L 5 18 L 5 12 L 6 12 L 6 14 L 6 14.652344 L 6 15 L 20 15 L 20 14.652344 L 20 14 L 20 6 L 8 6 C 8 4.892 7.108 4 6 4 z M 6 5 C 6.554 5 7 5.446 7 6 C 7 6.554 6.554 7 6 7 C 5.446 7 5 6.554 5 6 C 5 5.446 5.446 5 6 5 z M 7 7 L 19 7 L 19 14 L 7 14 L 7 7 z "
     class="ColorScheme-Text"
     />
</svg>
